src/Media/icon-tick.svg

<?xml version="1.0" encoding="UTF-8"?>
<svg width="23px" height="17px" viewBox="0 0 23 17" version="1.1" xmlns="http://www.w3.org/2000/svg" xmlns:xlink="http://www.w3.org/1999/xlink">
    <title>54E6387E-2EB6-4F64-B530-A3C69BFD232E</title>
    <defs>
        <polygon id="path-1" points="0 0 23 0 23 17 0 17"></polygon>
    </defs>
    <g id="Page-1" stroke="none" stroke-width="1" fill="none" fill-rule="evenodd">
        <g id="4.-SideKick-UI---In-Progress" transform="translate(-527.000000, -458.000000)">
            <g id="Group-3-Copy-4" transform="translate(527.000000, 458.000000)">
                <mask id="mask-2" fill="white">
                    <use xlink:href="#path-1"></use>
                </mask>
                <g id="Clip-2"></g>
                <path d="M22.105184,3.46667558 L10.0502366,15.8697676 C9.60835221,16.3252879 8.836754,16.3252879 8.39401978,15.8697676 L0.894731008,8.15477507 C0.805504343,8.06209723 0.755367455,7.93881823 0.755367455,7.80767035 C0.755367455,7.67652247 0.805504343,7.55324347 0.894731008,7.46056563 L2.7064572,5.59651712 C2.79653365,5.50383929 2.91635231,5.45225446 3.04381898,5.45225446 C3.17128564,5.45225446 3.2911043,5.50383929 3.38118075,5.59651712 L8.729682,11.0994821 C8.99311311,11.3696467 9.4519931,11.3696467 9.71457443,11.0994821 L19.6187343,0.908417637 C19.7988872,0.723061969 20.1141547,0.723061969 20.2934578,0.908417637 L22.105184,2.77246615 C22.1952605,2.86514398 22.2445476,2.98842299 22.2445476,3.11957086 C22.2445476,3.25071874 22.1952605,3.37399775 22.105184,3.46667558 M22.6388445,2.2233937 L20.827968,0.359345186 C20.3622898,-0.119781729 19.5499023,-0.119781729 19.0850738,0.359345186 L9.22170332,10.5066937 L3.91569096,5.04657035 C3.45001275,4.56831776 2.63847498,4.56744344 2.17279677,5.04657035 L0.361070572,6.91061886 C0.128231465,7.15018232 -8.49777765e-05,7.46843451 -8.49777765e-05,7.80767035 C-8.49777765e-05,8.14603188 0.128231465,8.46515838 0.361070572,8.70384752 L7.85950957,16.4197144 C8.22406423,16.793923 8.70758778,17.0002623 9.22170332,17.0002623 C9.73666865,17.0002623 10.2201922,16.793923 10.5847469,16.4197144 L22.6388445,4.01574803 C22.8716836,3.77705889 23,3.45793239 23,3.11957086 C23,2.78120934 22.8716836,2.46295715 22.6388445,2.2233937" id="Fill-1" fill="#479F6D" mask="url(#mask-2)"></path>
            </g>
        </g>
    </g>
</svg>

<svg width="23" height="17" viewBox="0 0 23 17" xmlns="http://www.w3.org/2000/svg" xmlns:xlink="http://www.w3.org/1999/xlink">
    <defs>
        <path id="aemwsgdnza" d="M0 0h23v17H0z"/>
    </defs>
    <g fill="none" fill-rule="evenodd">
        <mask id="y2k338zt6b" fill="#fff">
            <use xlink:href="#aemwsgdnza"/>
        </mask>
        <path d="M22.105 3.467 10.05 15.87a1.174 1.174 0 0 1-1.656 0l-7.5-7.715a.498.498 0 0 1 0-.694l1.812-1.864a.468.468 0 0 1 .675 0l5.349 5.502a.7.7 0 0 0 .985 0L19.619.91a.479.479 0 0 1 .674 0l1.812 1.863c.09.093.14.216.14.348 0 .13-.05.254-.14.347m.534-1.244L20.828.36a1.236 1.236 0 0 0-1.743 0L9.222 10.507l-5.306-5.46a1.237 1.237 0 0 0-1.743 0L.36 6.91C.128 7.15 0 7.468 0 7.808c0 .338.128.657.361.896L7.86 16.42a1.89 1.89 0 0 0 2.725 0L22.639 4.016c.233-.239.361-.558.361-.896 0-.339-.128-.657-.361-.897" fill="#479F6D" mask="url(#y2k338zt6b)"/>
    </g>
</svg>
